X:3092
T:Dei gamle fjell
C:anon., words: Ivar Aasen
O:Norway
R:Canon
Z:Transcribed by Frank Nordberg - http://www.musicaviva.com
F:http://abc.musicaviva.com/tunes/norway/dei-gamle-fjell/dei-gamle-fjell-1.abc
M:2/4
L:1/8
K:Eb
"^1"B,|EE FF|G>A B"^2"A|GG FF|E2 z B,|
EE FF|G>A BB|AG FE|B2 z B|
c>B A/G/F/E/|E>D CB,|E>F GA|B2 z B/A/|
Ge dc|B>G EE|GG FF|E2 z|]
W:
W:
W:  From Musica Viva - http://www.musicaviva.com
W:  the Internet center for free sheet music downloads.
